!!!OTL: Nachtigall als Botin (62), S. 191
!!!id: T0209
**kern
*clefG2
*k[b-e-]
*B-:
{4f
=1
4b-
8b-
8b-
4b-
4dd
=2
4.b-
8f
4f}
=3
{4f
=4
4g
4g
8b-
8a
8g
8f
=5
4.f
8e-
4d}
=6
{4f
=7
4b-
4b-
8cc
8ee-
8dd
8cc
=8
4dd
4cc
4b-}
==
*-
!!!minrhy: 8
!!!meters: 4/4 ]  ZZ[3
!!!cut: Nachtigall als Botin (62), S. 191
!!!reg: Luxemburg
!!!trd: Singendes Volk, Esch-Alzette 1937 posth.
!!!rhy1: X_  X_XXX_X_  X_.XX_
!!!rhy2: X_  X_X_XXXX  X_.XX_
!!!key: T0209  08 Bb 4/4 ]  ZZ[3
!!!mod: HEPTATONIK IONISCH]  AMBITUS[9b
!!!kad: -5-31
!!!akz: 111-5_-61-5-3_1231_
!!!fot: 'a__b__c__
!!!for: 'a__b__c__
!!!fok: '^__^d_^a_
!! PHRAS[AUFTAKTIG]
!!!fkt: Liebeslieder
!!!bem: StraPen, fff Witry, 17.1.1933
!! THILL, Mathias:
!! PR[22] 2K[2] 2G[4] 3K[8] 3G[8] 4A[0] 4Ü[0] 5A[2] 6K[0] 6G[2]
!! 7K[2] 7G[0] 8A[0] MEHR[0] SI[27] ABS[51] SR[6] SP[22]
!! ST[12] 2k[10] 2g[35] 3k[4] 3g[0] 4d[0] 4ü[0] 5d[2] 6k[0] 6g[0]
!! 7k[0] 7g[0] 8d[0] mehr[0] si[51] dm[-24] sr[45] sp[6]
!! 1F[75] 2F[21] 3F[0] 4F[0] LF[0] 2P[4] 3P[0] 4P[0] TRI[0] DF[3] AB[56]
!! TF[0] U3K[0] U3[0] U4[0] U4Ü[0] U5[4] U6K[0] U6[0] U7K[0] U7[2]
!! N1[12] N2K[0] N2[17] N3K[0] N3[19] N4[15] N4Ü[0] N5[21] N6K[0] N6[10]
!!!n7k: 0] N7[0] O1[0] O2K[0] O2[0] O3K[0] O3[0] HÖ[0
